src/32x32/places/folder-gruvbox-original-aqua-torrent.svg

<?xml version="1.0" encoding="UTF-8"?>
<svg width="32" height="32" version="1" xmlns="http://www.w3.org/2000/svg">
 <rect x="2" y="11" width="28" height="18" rx="1.4" ry="1.4" opacity=".2"/>
 <path d="m2 22.6c0 0.776 0.6244 1.4 1.4 1.4h25.2c0.776 0 1.4-0.624 1.4-1.4v-15.2c0-0.7756-0.624-1.4-1.4-1.4h-12.6c-2.1 0-2.8-3-4.9-3h-7.7c-0.7756 0-1.4 0.6244-1.4 1.4" fill="#427b58"/>
 <rect x="2" y="9" width="28" height="18" rx="1.4" ry="1.4" opacity=".2"/>
 <rect x="4" y="8" width="24" height="11" rx="1.4" ry="1.4" fill="#D5D7B3"/>
 <rect x="2" y="10" width="28" height="18" rx="1.4" ry="1.4" fill="#8ec07c"/>
 <path d="m3.4004 3c-0.7756 0-1.4004 0.6248-1.4004 1.4004v1c0-0.7756 0.6248-1.4004 1.4004-1.4004h7.6996c2.1 0 2.8 3 4.9 3h12.6c0.775 0 1.4 0.6248 1.4 1.4004v-1c0-0.7756-0.625-1.4004-1.4-1.4004h-12.6c-2.1 0-2.8-3-4.9-3z" fill="#D5D7B3" opacity=".1"/>
 <path d="m18 13a6 6 0 0 0-6 6 6 6 0 0 0 6 6h12v-1h-12a5 5 0 0 1-5-5 5 5 0 0 1 5-5zm0 2c-2.2091 0-4 1.7909-4 4s1.7909 4 4 4h12v-1h-12c-1.6569 0-3-1.3431-3-3s1.3431-3 3-3c0.3409 0.0014 0.67908 0.0608 1 0.17578v-1.0449c-0.32648-0.085635-0.66248-0.1296-1-0.13086zm0 2a2 2 0 0 0-2 2 2 2 0 0 0 2 2h12v-1h-12a1 1 0 0 1-1-1 1 1 0 0 1 1-1h1.7305a2 2 0 0 0-1.7305-1z" fill="#313D38"/>
</svg>

<svg xmlns="http://www.w3.org/2000/svg" width="32" height="32" version="1">
 <rect style="opacity:0.2" width="28" height="18" x="2" y="11" rx="1.4" ry="1.4"/>
 <path style="fill:#427b58" d="M 2,22.6 C 2,23.376 2.6244,24 3.4,24 H 28.6 C 29.376,24 30,23.376 30,22.6 V 7.4 C 30,6.6244 29.376,6 28.6,6 H 16 C 13.9,6 13.2,3 11.1,3 H 3.4 C 2.6244,3 2,3.6244 2,4.4"/>
 <rect style="opacity:0.2" width="28" height="18" x="2" y="9" rx="1.4" ry="1.4"/>
 <rect style="fill:#D5D7B3" width="24" height="11" x="4" y="8" rx="1.4" ry="1.4"/>
 <rect style="fill:#8ec07c" width="28" height="18" x="2" y="10" rx="1.4" ry="1.4"/>
 <path style="opacity:0.1;fill:#D5D7B3" d="M 3.4004,3 C 2.6248,3 2,3.6248 2,4.4004 V 5.4004 C 2,4.6248 2.6248,4 3.4004,4 H 11.1 C 13.2,4 13.9,7 16,7 H 28.6 C 29.375,7 30,7.6248 30,8.4004 V 7.4004 C 30,6.6248 29.375,6 28.6,6 H 16 C 13.9,6 13.2,3 11.1,3 Z"/>
 <path style="fill:#313D38" d="m 18,13 a 6,6 0 0 0 -6,6 6,6 0 0 0 6,6 H 30 V 24 H 21.308594 18 a 5,5 0 0 1 -5,-5 5,5 0 0 1 5,-5 z m 0,2 c -2.209139,0 -4,1.790861 -4,4 0,2.209139 1.790861,4 4,4 H 30 V 22 H 18 c -1.656854,0 -3,-1.343146 -3,-3 0,-1.656854 1.343146,-3 3,-3 0.3409,0.0014 0.679075,0.0608 1,0.175781 V 15.130859 C 18.673523,15.045224 18.337519,15.001255 18,15 Z m 0,2 a 2,2 0 0 0 -2,2 2,2 0 0 0 2,2 H 30 V 20 H 18 a 1,1 0 0 1 -1,-1 1,1 0 0 1 1,-1 h 1.730469 A 2,2 0 0 0 18,17 Z"/>
</svg>
